outputs/icons/alert/auto_delete_sharp.svg

<svg xmlns="http://www.w3.org/2000/svg" width="1200" height="1200" fill="none"><g fill="#000" clip-path="url(#a)"><path d="M750 100H575l-50-50H275l-50 50H50v100h700zM750 600h75v210l145 85-40 60-180-105z"/><path fill-rule="evenodd" d="M800 450c-35 0-68.5 5-100 14.5V250H100v700h384c56 118 176.5 200 316 200 193.5 0 350-156.5 350-350S993.5 450 800 450m0 600c-138 0-250-112-250-250s112-250 250-250 250 112 250 250-112 250-250 250"/></g><defs><clipPath id="a"><path fill="#fff" d="M0 0h1200v1200H0z"/></clipPath></defs></svg>

<svg width="1200" height="1200" viewBox="0 0 1200 1200" fill="none" xmlns="http://www.w3.org/2000/svg"><g clip-path="url(#clip0_125_1307)"><path d="M750 100H575L525 50H275L225 100H50V200H750V100Z" fill="black"/><path d="M750 600H825V810L970 895L930 955L750 850V600Z" fill="black"/><path fill-rule="evenodd" d="M800 450C765 450 731.5 455 700 464.5V250H100V950H484C540 1068 660.5 1150 800 1150C993.5 1150 1150 993.5 1150 800C1150 606.5 993.5 450 800 450ZM800 1050C662 1050 550 938 550 800C550 662 662 550 800 550C938 550 1050 662 1050 800C1050 938 938 1050 800 1050Z" fill="black"/></g><defs><clipPath id="clip0_125_1307"><path width="24" fill="white" d="M0 0H1200V1200H0V0z"/></clipPath></defs></svg>
